src/icons/rails.svg

<svg xmlns="http://www.w3.org/2000/svg" width="16" height="16" fill="none"><path fill="#FC8289" d="M8.56 14s-1.19-2.756-.888-5.284c.302-2.53 2.26-3.68 3.37-3.804s1.716.576 1.716.576l.242-.37s-1.594-1.645-3.613-1.46C7.37 3.844 5.976 5.2 5.11 6.845 4.24 8.49 3.736 9.641 3.393 11.368 3.05 13.096 3.191 14 3.191 14zm-6.438-2.756 1.049.083-.182 1.069L2 12.272zm1.655-2.261.282-.802-.928-.37-.303.864zm1.312-2.755.545-.658-.707-.473-.565.637zm1.433-2.55.484.597.666-.39-.484-.556zM8.882 3l.122.596.828-.02-.081-.535zm2.786 1.007.565.308.122-.185-.666-.493zm-.1 1.214v.308l.544.062v-.247zm-1.736.267.262.493.384-.308-.08-.329zm-.828.637.404.617-.242.432-.586-.658zm-.807 1.706-.263.535.687.596.161-.679zm-.323 2.591.847.37-.04-.679-.767-.411zm.485 2.57 1.07.062-.384-.802h-.888z"/></svg>

<svg width="16" height="16" viewBox="0 0 16 16" fill="none" xmlns="http://www.w3.org/2000/svg">
<path d="M8.56 14C8.56 14 7.37 11.244 7.672 8.716C7.974 6.186 9.932 5.036 11.042 4.912C12.152 4.788 12.758 5.488 12.758 5.488L13 5.118C13 5.118 11.406 3.473 9.387 3.658C7.37 3.844 5.976 5.2 5.11 6.845C4.24 8.49 3.736 9.641 3.393 11.368C3.05 13.096 3.191 14 3.191 14H8.56ZM2.122 11.244L3.171 11.327L2.989 12.396L2 12.272L2.122 11.244ZM3.777 8.983L4.059 8.181L3.131 7.811L2.828 8.675L3.777 8.983ZM5.089 6.228L5.634 5.57L4.927 5.097L4.362 5.734L5.089 6.228ZM6.522 3.678L7.006 4.275L7.672 3.885L7.188 3.329L6.522 3.678ZM8.882 3L9.004 3.596L9.832 3.576L9.751 3.041L8.882 3ZM11.668 4.007L12.233 4.315L12.355 4.13L11.689 3.637L11.668 4.007ZM11.568 5.221V5.529L12.112 5.591V5.344L11.568 5.221ZM9.832 5.488L10.094 5.981L10.478 5.673L10.398 5.344L9.832 5.488ZM9.004 6.125L9.408 6.742L9.166 7.174L8.58 6.516L9.004 6.125ZM8.197 7.831L7.934 8.366L8.621 8.962L8.782 8.283L8.197 7.831ZM7.874 10.422L8.721 10.792L8.681 10.113L7.914 9.702L7.874 10.422ZM8.359 12.992L9.429 13.054L9.045 12.252H8.157L8.359 12.992Z" fill="#FC8289"/>
</svg>
